images/icon-twitter.svg

<svg height="64" viewBox="0 0 64 64" width="64" xmlns="http://www.w3.org/2000/svg"><path d="m55.6111111 15.6410562c-1.7885775.787185-3.7105111 1.3193863-5.7281061 1.5584886 2.0592022-1.224804 3.6406325-3.1646212 4.3851172-5.4757087-1.9269125 1.1342804-4.06115 1.957816-6.3330111 2.4017876-1.8191605-1.9235829-4.4110775-3.1256237-7.2794869-3.1256237-5.5081567 0-9.9734658 4.431599-9.9734658 9.8972496 0 .7758916.0881931 1.5311374.2581782 2.2555029-8.288551-.4127383-15.6372054-4.3530747-20.5561043-10.3410448-.85846019 1.4617889-1.35027897 3.1619743-1.35027897 4.9757996 0 3.4337216 1.76066137 6.463175 4.43668187 8.2381791-1.6347729-.0513496-3.1726401-.4967329-4.5172292-1.2380385-.00071122.0412915-.00088903.0827595-.00088903.1244039 0 4.7954581 3.43775273 8.7957906 8.00014523 9.7050854-.8369453.2260444-1.7179873.346919-2.6274786.346919-.6427783 0-1.2674202-.0619372-1.8764149-.1775181 1.2691983 3.9322192 4.952327 6.7936833 9.3162851 6.8737958-3.4132152 2.6544775-7.7133399 4.2366117-12.38597386 4.2366117-.80493983 0-1.59885552-.0467617-2.37907994-.1381678 4.4137445 2.8081736 9.6558996 4.446598 15.2879891 4.446598 18.3443423 0 28.3755959-15.081271 28.3755959-28.1604349 0-.429149-.0097794-.856004-.028805-1.2803887 1.9484272-1.3954402 3.63921-3.1386817 4.9763311-5.123496" fill="#000000" fill-rule="evenodd"/></svg>

<?xml version="1.0" encoding="UTF-8"?>
<svg width="64px" height="64px" viewBox="0 0 64 64" version="1.1" xmlns="http://www.w3.org/2000/svg" xmlns:xlink="http://www.w3.org/1999/xlink">
    <!-- Generator: Sketch 52.6 (67491) - http://www.bohemiancoding.com/sketch -->
    <title>icon-twitter</title>
    <desc>Created with Sketch.</desc>
    <g id="icon-twitter" stroke="none" stroke-width="1" fill="none" fill-rule="evenodd">
        <path d="M55.6111111,15.6410562 C53.8225336,16.4282412 51.9006,16.9604425 49.883005,17.1995448 C51.9422072,15.9747408 53.5236375,14.0349236 54.2681222,11.7238361 C52.3412097,12.8581165 50.2069722,13.6816521 47.9351111,14.1256237 C46.1159506,12.2020408 43.5240336,11 40.6556242,11 C35.1474675,11 30.6821584,15.431599 30.6821584,20.8972496 C30.6821584,21.6731412 30.7703515,22.428387 30.9403366,23.1527525 C22.6517856,22.7400142 15.3031312,18.7996778 10.3842323,12.8117077 C9.52577211,14.2734966 9.03395333,15.973682 9.03395333,17.7875073 C9.03395333,21.2212289 10.7946147,24.2506823 13.4706352,26.0256864 C11.8358623,25.9743368 10.2979951,25.5289535 8.953406,24.7876479 C8.95269478,24.8289394 8.95251697,24.8704074 8.95251697,24.9120518 C8.95251697,29.7075099 12.3902697,33.7078424 16.9526622,34.6171372 C16.1157169,34.8431816 15.2346749,34.9640562 14.3251836,34.9640562 C13.6824053,34.9640562 13.0577634,34.902119 12.4487687,34.7865381 C13.717967,38.7187573 17.4010957,41.5802214 21.7650538,41.6603339 C18.3518386,44.3148114 14.0517139,45.8969456 9.37907994,45.8969456 C8.57414011,45.8969456 7.78022442,45.8501839 7,45.7587778 C11.4137445,48.5669514 16.6558996,50.2053758 22.2879891,50.2053758 C40.6323314,50.2053758 50.663585,35.1241048 50.663585,22.0449409 C50.663585,21.6157919 50.6538056,21.1889369 50.63478,20.7645522 C52.5832072,19.369112 54.27399,17.6258705 55.6111111,15.6410562" fill="#000000"></path>
    </g>
</svg>
